assets/Sunrise/Flat/sunrise_flat.svg

<svg width="32" height="32" viewBox="0 0 32 32" fill="none" xmlns="http://www.w3.org/2000/svg">
<path d="M2 6C2 3.79086 3.79086 2 6 2H26C28.2091 2 30 3.79086 30 6V21.5H2V6Z" fill="#FF5E59"/>
<path d="M14.6086 6.3475C15.3842 5.59641 16.6159 5.5964 17.3914 6.3475L18.2479 7.17701C18.4697 7.39177 18.7782 7.49208 19.0838 7.4488L20.264 7.28168C21.3324 7.1304 22.3282 7.85389 22.5144 8.91675L22.7209 10.0952C22.7741 10.3989 22.9645 10.6611 23.2368 10.8057L24.2929 11.3667C25.245 11.8724 25.6249 13.0418 25.1519 14.0105L24.626 15.0875C24.4908 15.3644 24.4908 15.6882 24.626 15.9651L25.1519 17.0421C25.6249 18.0108 25.245 19.1802 24.2928 19.6859L23.2368 20.2468C22.9645 20.3915 22.7741 20.6537 22.7209 20.9574L22.5144 22.1358C22.3282 23.1987 21.3324 23.9222 20.264 23.7709L19.0838 23.6038C18.7782 23.5605 18.4697 23.6608 18.2479 23.8756L17.3914 24.7051C16.6159 25.4562 15.3842 25.4562 14.6086 24.7051L13.7521 23.8756C13.5304 23.6608 13.2219 23.5605 12.9162 23.6038L11.736 23.7709C10.6677 23.9222 9.67188 23.1987 9.48565 22.1358L9.27916 20.9574C9.22594 20.6537 9.03558 20.3915 8.76326 20.2468L7.70721 19.6859C6.75511 19.1802 6.37517 18.0108 6.84821 17.0421L7.37409 15.9651C7.50929 15.6882 7.50929 15.3644 7.37409 15.0875L6.84821 14.0105C6.37517 13.0418 6.75511 11.8724 7.70721 11.3667L8.76326 10.8057C9.03558 10.6611 9.22594 10.3989 9.27916 10.0952L9.48565 8.91675C9.67188 7.85389 10.6677 7.1304 11.736 7.28168L12.9162 7.4488C13.2219 7.49208 13.5304 7.39177 13.7521 7.17701L14.6086 6.3475Z" fill="#FF9F2E"/>
<path d="M16 23C20.1421 23 23.5 19.6421 23.5 15.5C23.5 11.3579 20.1421 8 16 8C11.8579 8 8.5 11.3579 8.5 15.5C8.5 19.6421 11.8579 23 16 23Z" fill="#FCD53F"/>
<path d="M5.99721 30C3.78935 29.9985 2 28.2082 2 26V20.5C2 20.5 2 20.5 2.00001 20.5C2.37501 20.25 2.75 20 3.5 20C4.25 20 4.625 20.25 5 20.5C5.375 20.7499 5.75 20.9999 6.5 20.9999C7.25 20.9999 7.625 20.7499 8 20.5C8.375 20.25 8.75 20 9.5 20C10.25 20 10.75 20.25 11.25 20.5C11.75 20.75 12.25 21 13 21C13.75 21 14.125 20.75 14.5 20.5C14.875 20.25 15.25 20 16 20C16.75 20 17.125 20.25 17.5 20.5C17.875 20.75 18.25 21 19 21C19.75 21 20.25 20.75 20.75 20.5C21.25 20.25 21.75 20 22.5 20C23.25 20 23.625 20.25 24 20.5C24.375 20.75 24.75 21 25.5 21C26.25 21 26.625 20.75 27 20.5C27.375 20.25 27.75 20 28.5 20C29.25 20 29.625 20.25 30 20.5L30 26C30 28.2082 28.2106 29.9985 26.0028 30C26.0019 30 26.0009 30 26 30H6C5.99907 30 5.99814 30 5.99721 30Z" fill="#46A4FB"/>
<path d="M8.5 23C8.22386 23 8 23.2239 8 23.5C8 23.7761 8.22386 24 8.5 24H23.5C23.7761 24 24 23.7761 24 23.5C24 23.2239 23.7761 23 23.5 23H8.5Z" fill="white"/>
<path d="M12.5 26C12.2239 26 12 26.2239 12 26.5C12 26.7761 12.2239 27 12.5 27H19.5C19.7761 27 20 26.7761 20 26.5C20 26.2239 19.7761 26 19.5 26H12.5Z" fill="white"/>
</svg>

<svg xmlns="http://www.w3.org/2000/svg" width="32" height="32" fill="none"><path fill="#FF5E59" d="M2 6a4 4 0 0 1 4-4h20a4 4 0 0 1 4 4v15.5H2V6Z"/><path fill="#FF9F2E" d="M14.609 6.348a2 2 0 0 1 2.782 0l.857.829a1 1 0 0 0 .836.272l1.18-.167a2 2 0 0 1 2.25 1.635l.207 1.178a1 1 0 0 0 .516.71l1.056.562a2 2 0 0 1 .859 2.643l-.526 1.078a1 1 0 0 0 0 .877l.526 1.077a2 2 0 0 1-.86 2.644l-1.055.56a1 1 0 0 0-.516.711l-.207 1.179a2 2 0 0 1-2.25 1.635l-1.18-.167a1 1 0 0 0-.836.272l-.857.83a2 2 0 0 1-2.782 0l-.857-.83a1 1 0 0 0-.836-.272l-1.18.167a2 2 0 0 1-2.25-1.635l-.207-1.179a1 1 0 0 0-.516-.71l-1.056-.561a2 2 0 0 1-.859-2.644l.526-1.077a1 1 0 0 0 0-.877l-.526-1.077a2 2 0 0 1 .86-2.644l1.055-.561a1 1 0 0 0 .516-.71l.207-1.18a2 2 0 0 1 2.25-1.634l1.18.167a1 1 0 0 0 .836-.272l.857-.83Z"/><path fill="#FCD53F" d="M16 23a7.5 7.5 0 1 0 0-15 7.5 7.5 0 0 0 0 15Z"/><path fill="#46A4FB" d="M5.997 30A4 4 0 0 1 2 26v-5.5c.375-.25.75-.5 1.5-.5s1.125.25 1.5.5.75.5 1.5.5 1.125-.25 1.5-.5.75-.5 1.5-.5 1.25.25 1.75.5 1 .5 1.75.5 1.125-.25 1.5-.5.75-.5 1.5-.5 1.125.25 1.5.5.75.5 1.5.5 1.25-.25 1.75-.5 1-.5 1.75-.5 1.125.25 1.5.5.75.5 1.5.5 1.125-.25 1.5-.5.75-.5 1.5-.5 1.125.25 1.5.5V26a4 4 0 0 1-3.997 4H5.997Z"/><path fill="#fff" d="M8.5 23a.5.5 0 0 0 0 1h15a.5.5 0 0 0 0-1h-15ZM12.5 26a.5.5 0 0 0 0 1h7a.5.5 0 0 0 0-1h-7Z"/></svg>
